X: 31124
T: Paddy Fahey's
R: reel
M: 4/4
K: Cmajor
|:c2ge fdcd|cBGF DEFD|Gc~c2 gceg|fdcd cBGF|
Ecde efdc|BdGA _B=BcG|dg~g2 defa|gfdc BGFD:|

